X:1
T:Title
%%score { ( 1 4 ) | ( 2 3 ) }
L:1/8
M:6/8
K:G
V:1 treble nm="Grand Piano"
V:4 treble 
V:2 treble 
V:3 treble 
V:1
 z3 z2[Q:1/4=100] D | B2 B BAB | d3- d2 B | G2 G .[^CGB]2 [CG] |[M:5/8] [DFA]-[DFA]- [DFA]3 | %5
[M:1/8] D |[M:3/4] B2 .B2 A[DGB] |[M:7/8] [Gc]2 [Gd] [Ge]3 d/c/ |[M:3/4] B2 z2 z2 | %9
[M:5/8] G-G- G3 |[M:1/8] F/G/ |[M:3/4] .[A,FA]2 [FA][FA] B[DAc] | [Ac]4 z2 | B2 A A2 ^G | %14
[M:5/8] A-A- A3 |[M:1/8] A |[M:3/4] B2 B [Ec]2 [EB] | [A,EA]2 [CEG] [CE]2 [G,EG] | z2 z .B3 | %19
[M:5/8] [B,DG]-[B,DG]- [B,DG]3 |[M:1/8] D |[M:3/4] D2 DD EF | G6 | e2 d c2 B |[M:5/8] A-A- A3 | %25
[M:1/8] [DFA] |[M:3/4] [DGB]2 [CFA] [B,EG]2 [A,^DF] | [G,E]2 [^G,E] [Ec]2 [EA] | z2 z .B3 | %29
[M:5/8] [B,G]-[B,G]- [B,G]3 |] %30
V:2
 z3 z2 [G,B,] | [G,DG]2 [G,DG] GF[G,DG] | [G,B,G]3- [G,B,G]2 [G,B,G] | [E,B,]2 [E,B,] z AA,, | %4
[M:5/8] D,-D,- D,3 |[M:1/8] D, |[M:3/4][K:treble] [G,DG]2 [G,DG][K:bass]B, C=F, | %7
[M:7/8] z G,[D,B,] [C,C]3 [C,G,] |[M:3/4] .[D,G,D]2 [D,D]C B,[D,CD] | %9
[M:5/8] [G,B,D]-[G,B,D]- [G,B,D]3 |[M:1/8] D/E/ |[M:3/4] z D .[D,D]2 GD, | %12
 z2 z[K:treble] G2 [G,D] | [D,G,D]2 [D,F,D] [D,F,D]2 [D,=F,D] |[M:5/8] [D,F,D]-[D,F,D]- [D,F,D]3 | %15
[M:1/8] [D,F,D] |[M:3/4] [G,D]2 [E,^G,E] [A,,A,]2 [B,,G,] | C,2 C, C,2 C, | z G [C,G,][G,D] z D, | %19
[M:5/8] G,,-G,,- G,,3 |[M:1/8] D, |[M:3/4] D,2 D,D, E,F, | z2[K:treble] C B,2 [G,DG] | %23
 [CG]2 [B,DG] [A,DF]2 [G,DG] |[M:5/8][K:bass] z2 D D2 |[M:1/8] D, |[M:3/4] G,2 D, E,2 B,, | %27
 C,2 B,, [A,,A,]2 [C,A,] | [D,B,]2 .[D,B,]2 ED, |[M:5/8] G,,-G,,- G,,3 |] %30
V:3
 x6 | z3 .[G,D]3 | x6 | z3 .A,,3 |[M:5/8] x5 |[M:1/8] x |[M:3/4][K:treble] z2 z[K:bass] .G,3 | %7
[M:7/8] E,2 z z z z2 |[M:3/4] z2 z .[D,D]3 |[M:5/8] x5 |[M:1/8] [D,A,] |[M:3/4] D,2 z .[D,D]3 | %12
 G,6[K:treble] | x6 |[M:5/8] x5 |[M:1/8] x |[M:3/4] x6 | x6 | C,2 z .D,3 |[M:5/8] x5 |[M:1/8] x | %21
[M:3/4] x6 | G,6[K:treble] | x6 |[M:5/8][K:bass] D,-D,- D,3 |[M:1/8] x |[M:3/4] x6 | x6 | %28
 z2 z .D,3 |[M:5/8] x5 |] %30
V:4
 x6 | x6 | x6 | x6 |[M:5/8] x5 |[M:1/8] x |[M:3/4] z2 z .G3 |[M:7/8] C z z z z2 E | %8
[M:3/4] z B, BA GA |[M:5/8] x5 |[M:1/8] x |[M:3/4] x6 | D3- [DB]2 B | x6 |[M:5/8] x5 |[M:1/8] x | %16
[M:3/4] x6 | x6 | [G,D]2 .[EA]2 D[CDA] |[M:5/8] x5 |[M:1/8] x |[M:3/4] x6 | z2 E D2 B | x6 | %24
[M:5/8] [DF]2 F F2 |[M:1/8] x |[M:3/4] x6 | x6 | [DG][GB] [Gd]D z [CFA] |[M:5/8] x5 |] %30

